icons/svg/seamark/notice_prohibition_nomotorcraft.svg

<?xml version="1.0" encoding="UTF-8" standalone="no"?>
<svg
   xmlns:dc="http://purl.org/dc/elements/1.1/"
   xmlns:cc="http://creativecommons.org/ns#"
   xmlns:rdf="http://www.w3.org/1999/02/22-rdf-syntax-ns#"
   xmlns:svg="http://www.w3.org/2000/svg"
   xmlns="http://www.w3.org/2000/svg"
   xmlns:sodipodi="http://sodipodi.sourceforge.net/DTD/sodipodi-0.dtd"
   xmlns:inkscape="http://www.inkscape.org/namespaces/inkscape"
   width="320"
   height="320"
   id="svg2"
   version="1.1"
   inkscape:version="0.48.4 r9939"
   sodipodi:docname="notice_prohibition_no_passage_right.svg">
  <defs
     id="defs13">
    <inkscape:path-effect
       effect="gears"
       id="path-effect3774"
       is_visible="true"
       teeth="6"
       phi="-1.2" />
    <inkscape:path-effect
       effect="bend_path"
       id="path-effect3772"
       is_visible="false"
       bendpath="m 95.790098,316.51174 c 144.429032,-206.42506 223.313032,-11.7428 339.548092,0"
       prop_scale="1.19"
       scale_y_rel="false"
       vertical="false"
       bendpath-nodetypes="cc" />
    <inkscape:path-effect
       effect="spiro"
       id="path-effect3775"
       is_visible="true" />
    <inkscape:path-effect
       effect="spiro"
       id="path-effect3775-9"
       is_visible="true" />
    <inkscape:path-effect
       effect="spiro"
       id="path-effect3775-3"
       is_visible="true" />
    <inkscape:path-effect
       effect="spiro"
       id="path-effect3775-3-4"
       is_visible="true" />
  </defs>
  <sodipodi:namedview
     pagecolor="#ffffff"
     bordercolor="#666666"
     borderopacity="1"
     objecttolerance="10"
     gridtolerance="10"
     guidetolerance="10"
     inkscape:pageopacity="0"
     inkscape:pageshadow="2"
     inkscape:window-width="1920"
     inkscape:window-height="1004"
     id="namedview11"
     showgrid="true"
     inkscape:zoom="2"
     inkscape:cx="149.00611"
     inkscape:cy="158.13183"
     inkscape:window-x="1680"
     inkscape:window-y="0"
     inkscape:window-maximized="1"
     inkscape:current-layer="svg2"
     inkscape:snap-bbox="true"
     inkscape:object-nodes="true"
     inkscape:snap-midpoints="true"
     inkscape:snap-grids="false"
     inkscape:snap-bbox-edge-midpoints="true"
     showguides="true"
     inkscape:guide-bbox="true"
     inkscape:snap-center="true"
     inkscape:snap-object-midpoints="true">
    <inkscape:grid
       type="xygrid"
       id="grid2990"
       empspacing="5"
       visible="true"
       enabled="true"
       snapvisiblegridlinesonly="true"
       spacingx="10px"
       spacingy="10px"
       dotted="false" />
    <sodipodi:guide
       orientation="1,0"
       position="55.202458,260.58927"
       id="guide3872" />
    <sodipodi:guide
       orientation="1,0"
       position="265.17816,340"
       id="guide3874" />
    <sodipodi:guide
       orientation="0,1"
       position="317.80107,264.96094"
       id="guide3876" />
    <sodipodi:guide
       orientation="0,1"
       position="325.098,54.759006"
       id="guide3878" />
  </sodipodi:namedview>
  <metadata
     id="metadata2975">image/svg+xmlen<rdf:RDF>
  <cc:Work
     rdf:about="">
    <dc:format>image/svg+xml</dc:format>
    <dc:type
       rdf:resource="http://purl.org/dc/dcmitype/StillImage" />
    <dc:title></dc:title>
  </cc:Work>
</rdf:RDF>
</metadata>
  <path
     sodipodi:type="arc"
     style="color:#000000;fill:#000000;fill-opacity:1;fill-rule:nonzero;stroke:none;stroke-width:0;marker:none;visibility:visible;display:inline;overflow:visible;enable-background:accumulate"
     id="path3870"
     sodipodi:cx="155.56349"
     sodipodi:cy="150.29437"
     sodipodi:rx="14.495689"
     sodipodi:ry="14.495689"
     d="m 170.05918,150.29437 a 14.495689,14.495689 0 1 1 -28.99138,0 14.495689,14.495689 0 1 1 28.99138,0 z"
     transform="matrix(1.4609633,0,0,1.4609633,-70.26808,-50.338073)" />
  <path
     style="color:#000000;fill:#000000;fill-opacity:1;fill-rule:nonzero;stroke:none;stroke-width:0;marker:none;visibility:visible;display:inline;overflow:visible;enable-background:accumulate"
     d="m 123.80144,211.1805 c 0.3938,9.16889 -6.35375,17.06177 -15.51201,17.65298 -9.15825,0.59121 -16.243901,-6.44352 -17.652978,-15.51201 -6.600561,-42.47967 56.159218,-46.23805 64.148328,-46.75378 3.76216,-0.24287 9.0558,1.36553 0.3209,8.72902 -9.81407,8.27322 -32.30866,12.49781 -31.30424,35.88379 z"
     id="path3870-3"
     inkscape:connector-curvature="0"
     sodipodi:nodetypes="ssssss" />
  <path
     style="color:#000000;fill:#000000;fill-opacity:1;fill-rule:nonzero;stroke:none;stroke-width:0;marker:none;visibility:visible;display:inline;overflow:visible;enable-background:accumulate"
     d="m 207.03455,187.43706 c 8.57862,-3.26049 18.19451,0.65895 21.63902,9.16532 3.44452,8.50639 -1.00161,17.44649 -9.16532,21.63902 -38.24126,19.63914 -61.5677,-38.74571 -64.5725,-46.16616 -1.41498,-3.49439 -1.55503,-9.02521 8.18408,-3.05283 10.94233,6.71026 22.03425,26.73083 43.91472,18.41465 z"
     id="path3870-3-5"
     inkscape:connector-curvature="0"
     sodipodi:nodetypes="ssssss" />
  <path
     style="color:#000000;fill:#000000;fill-opacity:1;fill-rule:nonzero;stroke:none;stroke-width:0;marker:none;visibility:visible;display:inline;overflow:visible;enable-background:accumulate"
     d="m 142.5968,120.9437 c -7.33428,-5.51652 -9.14902,-15.74071 -3.79177,-23.19209 5.35725,-7.451385 15.29083,-8.460122 23.1921,-3.791767 37.01189,21.867977 0.0733,72.744817 -4.60007,79.244957 -2.20074,3.06099 -6.80407,6.13001 -6.94814,-5.2936 -0.16185,-12.83496 10.85455,-32.89717 -7.85212,-46.9675 z"
     id="path3870-3-5-6"
     inkscape:connector-curvature="0"
     sodipodi:nodetypes="ssssss" />
</svg>

<svg width="320" height="320" viewBox="0 0 320 320" fill="none" xmlns="http://www.w3.org/2000/svg">
<path d="M178.182 169.236C178.182 174.853 175.951 180.24 171.979 184.211C168.008 188.183 162.621 190.414 157.004 190.414C151.388 190.414 146.001 188.183 142.03 184.211C138.058 180.24 135.827 174.853 135.827 169.236C135.827 163.62 138.058 158.233 142.03 154.261C146.001 150.29 151.388 148.059 157.004 148.059C162.621 148.059 168.008 150.29 171.979 154.261C175.951 158.233 178.182 163.62 178.182 169.236V169.236Z" fill="black"/>
<path d="M123.801 211.181C124.195 220.35 117.448 228.242 108.289 228.834C99.1311 229.425 92.0455 222.39 90.6364 213.322C84.0358 170.842 146.796 167.084 154.785 166.568C158.547 166.325 163.841 167.933 155.106 175.297C145.292 183.57 122.797 187.795 123.801 211.181V211.181Z" fill="black"/>
<path d="M207.035 187.437C215.613 184.176 225.229 188.096 228.674 196.602C232.118 205.109 227.672 214.049 219.508 218.241C181.267 237.88 157.94 179.496 154.936 172.075C153.521 168.581 153.381 163.05 163.12 169.022C174.062 175.733 185.154 195.753 207.035 187.437V187.437Z" fill="black"/>
<path d="M142.597 120.944C135.262 115.427 133.448 105.203 138.805 97.7516C144.162 90.3002 154.096 89.2915 161.997 93.9599C199.009 115.828 162.07 166.705 157.397 173.205C155.196 176.266 150.593 179.335 150.449 167.911C150.287 155.076 161.303 135.014 142.597 120.944Z" fill="black"/>
</svg>
